source/images/work/mvl-architects/mvl-logo.svg

<svg height="160" viewBox="0 0 160 160" width="160" xmlns="http://www.w3.org/2000/svg"><path d="m0 0h160v160h-160zm68.9318183 33.8213384-.3579548-.8352273h-1.1335225l-.1193184 1.5511364 1.0142048.3579545zm39.9715907 50.8295455-1.014204-1.2528409-.835228 1.2528409.596591 1.3124999zm-2.088068 41.5227271v-4.892045l-.238636-2.923296-.775569-6.5625-.477273-3.579545-.119318-4.414773-.715909-1.3125v-6.5028411l-.715909-3.1619317.715909-1.6107954.357955-3.9971591v-3.2812501l.119318-3.5795453.238636-4.4147726.119318-3.2812501-1.073863-6.6818183v-3.8181817l-.238636-6.622159.119318-3.5198865.119318-2.8039773-.119318-3.0426137-.357955-2.5653408-1.372159-1.8494318-1.610795-1.4914773-2.0284094-1.1931819-1.9687499-.2386364-1.9687502-.4772726-1.3124999.8352274-2.2073864 1.3721589-1.6107953 2.1477273-1.1931819 1.2528409-1.6107954 2.8039773-.4772729 2.3267047-1.2528409 2.4460227-1.0738634 2.5653408-.1193184 2.4460228.7159093 1.9687499.835227.9545454-.835227 1.9687502-.8352274 2.6846588-1.4914773 3.5198866-1.3124999 3.9374998-1.1335229 2.3267047-.5965909 2.0284092-.9545454 1.1335225-.8948864-.715909-1.5511364-1.9687498-.8948864-2.8039776-.3579545-2.9232953-.4772725-3.5795456-.4772729-2.5653408-1.0142044-3.2812502-.596591-2.8039772-1.1931818-4.0568181-.8948864-3.0426137-.715909-2.8039773-1.0738638-2.2073863-1.0142045-1.1931819h-1.5511363l-1.8494318 1.0738639-2.0880683 3.0426137-1.6107954 2.0880679-.3579545 2.2073866-1.0738638.8352271-.4772725 1.7301137-3.4602272 8.4119318v1.7301137l-1.6704548 2.6846589.1193184 1.7301138-1.4914773 2.6846592-.3579545 2.9232953-2.0880683 7.2187502-.2386364 6.085227-1.0738635.4772729-1.3721593 2.5653408-.715909 5.0113635.715909 2.3267048 1.3721593 1.0142044 1.9090909.8352274 2.8636362-.1193184h2.2670454l2.3267047-.3579545 1.3721589-1.9687499 1.1931819-1.9687498-.596591-2.2073867-.119318-2.5653408-1.0738638-1.1931819.1193184-3.4602272 1.1931818-6.4431818.596591-5.3693181v-1.4914773l.775568-3.9971591.9545454-6.9801138 1.1335228-3.2812498.9545455-2.6846592.7159089-1.6107954 1.4914774.715909 1.1931818.7159093 1.0142045 2.2073864.7159093 2.6846588 1.1931815 2.9829547.7755684 3.2812501.4772729 2.6846588 1.3124999 5.846591 1.0142044 2.5653411 1.8494318 2.8039773 1.0738639 1.7301134 1.6107953.7159093 1.0738635-.5965909.9545454-.9545454.8948864-1.8494318 1.0738639-3.2812502 1.0142044-3.3409091 1.0738635-3.2812502 1.1931818-3.9374997 1.3721593-3.5198866 1.6107954-3.0426137 1.7897728-2.4460224 1.6107954-1.6107957 1.3124999.5369319 1.4914773 1.1931819.1193181 2.8039772.3579548 2.4460228.775568 2.3267043-.775568 2.0880683-.4772729 3.7585227.1193181 3.818182.3579548 2.6846589.8948864 1.6704547-.1193184 5.0113636.8352274 2.4460227v2.9829547l.9545454 3.6392043 1.1335229 1.9687502.3579544 3.5198862 1.0738636 4.7727278.894886 3.281249.477273 4.892046 1.431818 4.534091.238637 4.772727v.835227l.775568 1.372159.835227 3.161932.835227 1.610796.775569-.536932zm-51.5454548-19.03125-.775568-.894886h-.9545454l-.1193184 1.610795.9545458.119318z" fill="#29176d" fill-rule="evenodd"/></svg>

<svg width="160px" height="160px" viewBox="0 0 160 160" version="1.1" xmlns="http://www.w3.org/2000/svg" xmlns:xlink="http://www.w3.org/1999/xlink">
    <g stroke="none" stroke-width="1" fill="none" fill-rule="evenodd">
      <path fill="#29176D" d="M0,0 L160,0 L160,160 L0,160 L0,0 Z M68.9318183,33.8213384 L68.5738635,32.9861111 L67.440341,32.9861111 L67.3210226,34.5372475 L68.3352274,34.895202 L68.9318183,33.8213384 Z M108.903409,84.6508839 L107.889205,83.398043 L107.053977,84.6508839 L107.650568,85.9633838 L108.903409,84.6508839 Z M106.815341,126.173611 L106.815341,121.281566 L106.576705,118.35827 L105.801136,111.79577 L105.323863,108.216225 L105.204545,103.801452 L104.488636,102.488952 L104.488636,95.9861109 L103.772727,92.8241792 L104.488636,91.2133838 L104.846591,87.2162247 L104.846591,83.9349746 L104.965909,80.3554293 L105.204545,75.9406567 L105.323863,72.6594066 L104.25,65.9775883 L104.25,62.1594066 L104.011364,55.5372476 L104.130682,52.0173611 L104.25,49.2133838 L104.130682,46.1707701 L103.772727,43.6054293 L102.400568,41.7559975 L100.789773,40.2645202 L98.7613636,39.0713383 L96.7926137,38.8327019 L94.8238635,38.3554293 L93.5113636,39.1906567 L91.3039772,40.5628156 L89.6931819,42.7105429 L88.5,43.9633838 L86.8892046,46.7673611 L86.4119317,49.0940658 L85.1590908,51.5400885 L84.0852274,54.1054293 L83.965909,56.5514521 L84.6818183,58.520202 L85.5170453,59.4747474 L84.6818183,61.4434976 L83.8465909,64.1281564 L82.3551136,67.648043 L81.0426137,71.5855428 L79.9090908,73.9122475 L79.3124999,75.9406567 L78.3579545,77.0741792 L77.4630681,76.3582702 L75.9119317,74.3895204 L75.0170453,71.5855428 L74.6590908,68.6622475 L74.1818183,65.0827019 L73.7045454,62.5173611 L72.690341,59.2361109 L72.09375,56.4321337 L70.9005682,52.3753156 L70.0056818,49.3327019 L69.2897728,46.5287246 L68.215909,44.3213383 L67.2017045,43.1281564 L65.6505682,43.1281564 L63.8011364,44.2020203 L61.7130681,47.244634 L60.1022727,49.3327019 L59.7443182,51.5400885 L58.6704544,52.3753156 L58.1931819,54.1054293 L54.7329547,62.5173611 L54.7329547,64.2474748 L53.0624999,66.9321337 L53.1818183,68.6622475 L51.690341,71.3469067 L51.3323865,74.270202 L49.2443182,81.4889522 L49.0056818,87.5741792 L47.9318183,88.0514521 L46.559659,90.6167929 L45.84375,95.6281564 L46.559659,97.9548612 L47.9318183,98.9690656 L49.8409092,99.804293 L52.7045454,99.6849746 L54.9715908,99.6849746 L57.2982955,99.3270201 L58.6704544,97.3582702 L59.8636363,95.3895204 L59.2670453,93.1821337 L59.1477273,90.6167929 L58.0738635,89.423611 L58.1931819,85.9633838 L59.3863637,79.520202 L59.9829547,74.1508839 L59.9829547,72.6594066 L60.7585227,68.6622475 L61.7130681,61.6821337 L62.8465909,58.4008839 L63.8011364,55.7162247 L64.5170453,54.1054293 L66.0085227,54.8213383 L67.2017045,55.5372476 L68.215909,57.744634 L68.9318183,60.4292928 L70.1249998,63.4122475 L70.9005682,66.6934976 L71.3778411,69.3781564 L72.690341,75.2247474 L73.7045454,77.7900885 L75.5539772,80.5940658 L76.6278411,82.3241792 L78.2386364,83.0400885 L79.3124999,82.4434976 L80.2670453,81.4889522 L81.1619317,79.6395204 L82.2357956,76.3582702 L83.25,73.0173611 L84.3238635,69.7361109 L85.5170453,65.7986112 L86.8892046,62.2787246 L88.5,59.2361109 L90.2897728,56.7900885 L91.9005682,55.1792928 L93.2130681,55.7162247 L94.7045454,56.9094066 L94.8238635,59.7133838 L95.1818183,62.1594066 L95.9573863,64.4861109 L95.1818183,66.5741792 L94.7045454,70.3327019 L94.8238635,74.1508839 L95.1818183,76.8355428 L96.0767047,78.5059975 L95.9573863,83.5173611 L96.7926137,85.9633838 L96.7926137,88.9463385 L97.7471591,92.5855428 L98.880682,94.554293 L99.2386364,98.0741792 L100.3125,102.846907 L101.207386,106.128156 L101.684659,111.020202 L103.116477,115.554293 L103.355114,120.32702 L103.355114,121.162247 L104.130682,122.534406 L104.965909,125.696338 L105.801136,127.307134 L106.576705,126.770202 L106.815341,126.173611 Z M55.2698862,107.142361 L54.4943182,106.247475 L53.5397728,106.247475 L53.4204544,107.85827 L54.3750002,107.977588 L55.2698862,107.142361 Z"></path>
    </g>
</svg>
